X:1
T: The Lady behind the Boat
C:
R:Reel
Q: 232
K:D
M:4/4
L:1/8
((3ABc )|d2 cA BF FE|DE FD EA, ((3A,G,A,)|DF Ac df ed|((3cBA) Bc df ec|
d2 cA BF FE|DE FD EA, ((3A,G,A,)|DF Ac df ed|((3cBA) Bc d2 ((3ABc)|
|:d2 dc df ed|c2 cB ce dc|d2 dc df ed|ec Ac BA Bc|
df af gf ed|Be ef ec Ac|de fd cd ec|BA Bc df ec:|
d2 cA BF FE|DE FD EA, ((3A,G,A,)|DF Ac df ed|((3cBA) Bc df ec|
d2 cA BF FE|DE FD EA, ((3A,G,A,)|DF Ac df ed|((3cBA) Bc d2||
